X: 78
T: TOM THUMB
%R: reel
B: Jean White "100 Popular Hornpipes, Reels, Jigs and Country Dances", Boston 1880 p.33
F: http://www.loc.gov/resource/sm1880.09124.0#seq-1
Z: 2014 John Chambers <jc:trillian.mit.edu>
M: C|
L: 1/8
K: A
% - - - - - - - - - - - - - - - - - - - - - - - - - - - - -
|:\
C2EA cecA | B2dB GBGE |\
A2E=G FDCB, | CEcB A2A,2 :|
|:\
c2cA c2cA | cAec A2Ac |\
B2BG B2BG | EFED C2A,2 :|
|:\
ceee e2ee | fagf fedc |\
defd ecBA | Gfed {d}c2A2 :|
|:\
A2EC A2EC | AB/c/ BA AGFE |\
EAGF FEDC | D2E2 A,4 H:|
% - - - - - - - - - - - - - - - - - - - - - - - - - - - - -

%%sep 1 1 500
%%sep 1 1 500
